X: 1
T:Paddy's Leather Breeches  "24"
M:6/8
L:1/8
Q:80
C:Trad.
S:Slow Air
K:HP
|: {g}B{d}B{e}B{gfg}f2e|
{g}fB{G}B{gfg}f2e|
{g}B{d}B{e}B{gfg}f2e|  !
{g}c{d}A{e}A{g}fec|
{g}B{d}B{e}B{gfg}f2e|
{g}fB{G}B{gfg}f2e|  !
{g}fgaefa|
c{d}A{e}A{gef}e2c:| |:
{ag}a3{fg}f2e|  !
{g}fB{G}B{gfg}f2e|
{ag}a3{fg}f2e|
{g}c{d}A{e}A{g}fec|  !
{ag}a3{fg}f2e|
{g}fB{G}B{gfg}f2e|
{g}fgaefa|  !
c{d}A{e}A{gef}e2c:| |:
{g}B{d}B{e}B{g}c{d}c{e}c|
{g}B{d}B{e}B{gfg}f2e|  !
{g}c{d}c{e}c{g}B{d}B{e}B|
{g}A{d}A{e}A{g}fec|
{g}B{d}B{e}B{d}c{e}B{d}c|  !
{g}B{d}ce{gfg}f2e|
{g}fgaefa|
c{d}A{e}A{gef}e2c:| |:  !
aga{fg}f2e|
{g}fB{G}B{gfg}f2e|
aga{fg}f2e|  !
{g}c{d}A{e}A{g}fec|
aga{fg}f2e|
{g}fB{G}B{gfg}f2e|  !
{g}fgaefa|
c{d}A{e}A{gef}e2c:|
